X: 29965
T: Oban Ball, The
R: reel
M: 4/4
K: Dmajor
ABdA B2AB|d2fe dBBe|ABdA B2AB|1 e2fB AA Ad:|2 e2fB AA Ae]|
|:fAee eede|fAef dBBe|1 fAff e2dB|e2dB AAAe:|2 f2ed e2dB|e2dB AAAd||

